public/images/da13.svg

<svg width="100" height="100" viewBox="0 0 100 100" fill="none" xmlns="http://www.w3.org/2000/svg">
<path d="M42.3734 51.8904H48.5629L45.3027 46.6223L39.3023 56.1427H36.5619L43.8617 44.7323C44.1688 44.2599 44.7121 44 45.2791 44C45.8461 44 46.3894 44.2599 46.6966 44.7323L54.02 56.1663H51.2796L50.0039 54.0402H43.7436L42.3734 51.8904ZM70.7221 54.0166V44.0945H68.407V54.9851C68.407 55.2923 68.5251 55.5757 68.7377 55.7884C68.974 56.0246 69.2575 56.1427 69.5882 56.1427H80.1481L81.5183 54.0166H70.7221ZM32.4041 52.2448C34.6483 52.2448 36.4674 50.4257 36.4674 48.1814C36.4674 45.9372 34.6483 44.1181 32.4041 44.1181H22.2694V56.1663H24.5845V46.2443H32.2387C33.3254 46.2443 34.1759 47.1184 34.1759 48.2051C34.1759 49.2918 33.3018 50.1659 32.2387 50.1659H25.7185L32.6403 56.19H35.9949L31.3646 52.2448H32.4041ZM8.02411 56.1427C4.69313 56.1427 2 53.4496 2 50.1186C2 46.7876 4.69313 44.0945 8.02411 44.0945H15.0168C18.3478 44.0945 21.0409 46.7876 21.0409 50.1186C21.0409 53.4496 18.3478 56.1427 15.0168 56.1427H8.02411ZM14.8751 54.0166C17.0248 54.0166 18.773 52.2684 18.773 50.1186C18.773 47.9688 17.0248 46.2207 14.8751 46.2207H8.18948C6.01608 46.2207 4.2679 47.9688 4.2679 50.1186C4.2679 52.2684 6.01608 54.0166 8.16586 54.0166H14.8751ZM58.8629 56.1427C55.5319 56.1427 52.8388 53.4496 52.8388 50.1186C52.8388 46.7876 55.5319 44.0945 58.8629 44.0945H67.1785L65.8084 46.2207H59.0047C56.8549 46.2207 55.1067 47.9688 55.1067 50.1186C55.1067 52.2684 56.8549 54.0166 59.0047 54.0166H67.3439L65.9737 56.1427H58.8629ZM87.1881 54.0166C85.4163 54.0166 83.9043 52.8117 83.4318 51.1817H93.3303L94.7005 49.0555H83.4318C83.9043 47.4255 85.3926 46.2207 87.1881 46.2207H93.9918L95.362 44.0945H87.0463C83.7153 44.0945 81.0222 46.7876 81.0222 50.1186C81.0222 53.4496 83.7153 56.1427 87.0463 56.1427H94.2044L95.5746 54.0166H87.1881Z" fill="#ED1C24"/>
<path d="M96.5904 45.3703C96.5904 44.7797 97.0628 44.3072 97.6534 44.3072C98.244 44.3072 98.7165 44.7797 98.7165 45.3703C98.7165 45.9609 98.244 46.4334 97.6534 46.4334C97.0628 46.4334 96.5904 45.9609 96.5904 45.3703ZM97.6534 46.7405C98.4094 46.7405 99 46.1263 99 45.3939C99 44.638 98.3858 44.0474 97.6534 44.0474C96.8975 44.0474 96.3069 44.6616 96.3069 45.3939C96.3069 46.1263 96.8975 46.7405 97.6534 46.7405ZM97.5117 44.5671C97.7243 44.5671 97.7952 44.5671 97.9133 44.6143C98.1732 44.7088 98.1968 44.9451 98.1968 45.0396C98.1968 45.0632 98.1968 45.1104 98.1732 45.1577C98.1496 45.2049 98.1259 45.3231 97.9842 45.4176C97.9606 45.4176 97.9606 45.4412 97.9133 45.4412L98.2677 46.079H97.9369L97.6298 45.4884H97.4408V46.1026H97.1337V44.5671H97.5117ZM97.6298 45.2758C97.7243 45.2758 97.8188 45.2758 97.8897 45.1813C97.9133 45.1341 97.9133 45.1104 97.9133 45.0396C97.9133 44.9687 97.8661 44.8978 97.7952 44.8506C97.7243 44.827 97.6534 44.827 97.5117 44.827H97.4408V45.2522H97.6298V45.2758Z" fill="#ED1C24"/>
</svg>

<svg xmlns="http://www.w3.org/2000/svg" width="100" height="100" fill="none"><path fill="#ED1C24" d="M42.373 51.89h6.19l-3.26-5.268-6 9.52h-2.741l7.3-11.41c.307-.472.85-.732 1.417-.732s1.11.26 1.418.732l7.323 11.434h-2.74l-1.276-2.126h-6.26zm28.35 2.127v-9.923h-2.316v10.891c0 .307.118.59.33.803q.355.355.851.355h10.56l1.37-2.126zm-38.319-1.772a4.063 4.063 0 1 0 0-8.127H22.27v12.048h2.316v-9.922h7.654c1.086 0 1.937.874 1.937 1.961s-.874 1.96-1.937 1.96h-6.52l6.921 6.025h3.355l-4.63-3.945zm-24.38 3.898A6.02 6.02 0 0 1 2 50.119a6.02 6.02 0 0 1 6.024-6.025h6.993a6.02 6.02 0 0 1 6.024 6.025 6.02 6.02 0 0 1-6.024 6.024zm6.851-2.126a3.9 3.9 0 0 0 3.898-3.898 3.9 3.9 0 0 0-3.898-3.898H8.19c-2.173 0-3.921 1.748-3.921 3.898a3.9 3.9 0 0 0 3.898 3.898zm43.988 2.126a6.02 6.02 0 0 1-6.024-6.024 6.02 6.02 0 0 1 6.024-6.025h8.316l-1.37 2.127h-6.804a3.9 3.9 0 0 0-3.898 3.898 3.9 3.9 0 0 0 3.898 3.898h8.339l-1.37 2.126zm28.325-2.126c-1.772 0-3.284-1.205-3.756-2.835h9.898l1.37-2.126H83.433a3.91 3.91 0 0 1 3.756-2.835h6.804l1.37-2.126h-8.316a6.02 6.02 0 0 0-6.024 6.024 6.02 6.02 0 0 0 6.024 6.024h7.158l1.37-2.126zM96.59 45.37c0-.59.473-1.063 1.063-1.063.591 0 1.063.473 1.063 1.063s-.472 1.063-1.063 1.063c-.59 0-1.063-.472-1.063-1.063m1.063 1.37a1.346 1.346 0 1 0 .002-2.691 1.346 1.346 0 0 0-.002 2.691m-.141-2.173c.212 0 .283 0 .401.047.26.095.284.331.284.426 0 .023 0 .07-.024.118-.023.047-.047.165-.189.26-.023 0-.023.023-.07.023l.354.638h-.331l-.307-.59h-.19v.614h-.306v-1.536zm.118.709c.094 0 .189 0 .26-.095.023-.047.023-.07.023-.141s-.047-.142-.118-.19c-.07-.023-.142-.023-.283-.023h-.071v.425h.189z"/></svg>
